build/category/CancelMegaphoneSolid.svg

<svg xmlns="http://www.w3.org/2000/svg" fill="none" viewBox="0 0 24 24" focusable="false"><path d="M0 0H24V24H0z"/><path fill="#74767B" fill-rule="evenodd" d="M5.06833 2.12388C5.35285 1.90497 5.76095 1.95816 5.97986 2.24268L10.414 8.00588L12.8805 8.00588C14.5794 8.00588 16.0245 6.7668 16.2837 5.08776C16.38 4.46411 16.9167 4.00388 17.5478 4.00388L18.6999 4.00388C19.4179 4.00388 19.9999 4.58591 19.9999 5.30388L19.9999 20.4649L20.3843 20.9645C20.6032 21.249 20.55 21.6571 20.2655 21.876C19.981 22.0949 19.5729 22.0418 19.354 21.7572L4.94953 3.03541C4.73062 2.75089 4.78381 2.34279 5.06833 2.12388ZM6.98895 8.00588L6.98145 8.00588C5.32459 8.00588 3.98145 9.34902 3.98145 11.0059L3.98145 13.0069C3.98145 14.6637 5.32459 16.0069 6.98145 16.0069L12.8896 16.0069C13.047 16.0069 13.15 15.8215 13.054 15.6968L7.22672 8.12294C7.16993 8.04913 7.08208 8.00588 6.98895 8.00588ZM6.47759 12C6.47759 11.4502 6.92531 11 7.47759 11C8.02987 11 8.47759 11.4502 8.47759 12C8.47759 12.5498 8.02987 13 7.47759 13C6.92531 13 6.47759 12.5498 6.47759 12ZM11.7599 18.7075L11.7599 17.9842C11.7599 17.5976 11.4465 17.2842 11.0599 17.2842L8.66189 17.2842C8.22324 17.2842 7.89267 17.683 7.97403 18.114L8.16635 19.1328C8.37079 20.2158 9.08738 21.0001 10.1895 21.0001C11.4557 21.0001 11.7599 19.9737 11.7599 18.7075Z"/></svg>

<svg xmlns="http://www.w3.org/2000/svg" fill="none" viewBox="0 0 24 24" focusable="false"><path fill="#74767B" fill-rule="evenodd" d="M5.97 2.24a.64.64 0 0 0-.91-.12c-.28.22-.33.63-.12.91l14.41 18.72c.22.29.63.34.91.12.29-.22.34-.63.12-.91l-.38-.5V5.3c0-.72-.59-1.3-1.3-1.3h-1.16c-.63 0-1.16.46-1.26 1.08A3.45 3.45 0 0 1 12.88 8h-2.47zM6.98 8c-1.66 0-3 1.34-3 3v2c0 1.66 1.34 3 3 3h5.9c.16 0 .26-.18.17-.31L7.22 8.12A.28.28 0 0 0 6.98 8m-.51 4c0-.55.45-1 1-1s1 .45 1 1c0 .54-.45 1-1 1s-1-.46-1-1m5.28 6.7v-.72c0-.39-.31-.7-.69-.7h-2.4c-.44 0-.77.4-.69.83l.19 1.02c.21 1.08.92 1.87 2.02 1.87 1.27 0 1.57-1.03 1.57-2.3"/></svg>
